X:5847
T:Gan Ainm
R:reel
S:
H:
N:
D:Milltown 1999 
Z:Adrian Scahill
M:4/4
L:1/8
K:G
a2ed ceAG|EAAE A2ce|a2ed ceAc|ABBA gdeg|\
a2ed ceAG|EAA2 a2ga|b2ag egg2|gedB BAA2:||\
c2Ec d2ed|ceA^c dBGB|c2Ec d2ed|cABG DE (3GAB|\
c2Ec d2ed|cAA2 a2ga|b2ag egg2|gedB BAA2:||


